X:12
T: Ich seind so sehr betruebet,
N: D0013
O: Europa, Mitteleuropa, Lothringen, Weiler
N: Inzipit = Variante zum Lied
R: Liebes - Klage
M: 4/4
L: 1/16
K: G
D4D4D4 | D4D3AG6_BA | G4z4z4
_B2c2 | d4_e4d4 | c4d4c2_B2 | A8
d8 | _e4d2c2c4A2c2 | _B4A4G4
B4 | A4d4G2G2F2A2 | G8
d8 | _e4d2c2c4A2c2 | _B4A4G4
B4 | A4d4G2G2F2A2 | G8z8 | z4

@@@ Tune index: 2534
